X: 14
T:Coire an Lochan
M:C
L:1/8
C:D. Muir
S:From the playing of Joseph Cormier
R:Reel
A:Scotland, Cape Breton, Eastern US and Canada
B:"Joseph Cormier and Friends", Mel Bay Publications, ISBN 0-7866-1829-9
D:"Judique on the Floor";Buddy MacMaster,1989, Sea Scape Music,ACD-902
D:"Joseph Cormier and Friends",1992, Rounder CD 7013
N:from The Scottish Music List, Vol2 No 67
Z:W. Armstrong, Jan-98
K:C
E/2||"Am"A2 ed e2 A2|edea gedc|"G"BABd G2 GA|
BcdB "Em"edBG|"Am"A2 ed e2A2|
edeg a2 ag|"C"e^fge "G"dcBd|"Em"e2 dB "Am"A2:|
AB||"C"c2 g^f g2 c2|agea gedc|
"G"B2 AB GABc|dBGB gdBG|c2 g^f g2c2|
cdeg "Am"a2 ag|"C"e^fge "G"dcBd|"Em"e2 eB "Am"A2:|
